X:60
T:Gunnersbury House
M:6/8
L:1/8
B:Thompson's Compleat Collection of 200 Favourite Country Dances, vol. 2 (London, 1765)
Z:Transcribed and edited by Flynn Titford-Mock, 2007
Z:abc's:AK/Fiddler's Companion
K:A
Acd | efe Bcd | d2c aec | afd cBA | e3 Ace | efe Bcd | d2c aec | afe dcB | A3 :|
|: geg | aea geg\a2e geg | aed cBA | e3 geg | aea geg | a2e geg | afe dcB | A3 :|

